apps/spreadsheeteditor/main/resources/img/toolbar/2.5x/big/btn-func-math.svg

<svg xmlns="http://www.w3.org/2000/svg" width="28" height="28" fill="none"><path fill="#000" d="M20 23H7v-1h13v1Zm-6-13h6v1h-6v6h-1v-6H7v-1h6V4h1v6Z"/></svg>

<svg width="28" height="28" viewBox="0 0 28 28" fill="none" xmlns="http://www.w3.org/2000/svg">
<path fill-rule="evenodd" clip-rule="evenodd" d="M13 4H14V10H20V11H14V17H13V11H7V10H13V4ZM20 23V22H7V23H20Z" fill="black"/>
</svg>
